build/img/icon__living.svg

<svg width="36" height="36" viewBox="0 0 36 36" fill="none" xmlns="http://www.w3.org/2000/svg">
<g opacity="0.4" clip-path="url(#clip0)">
<path d="M34.2 21.0005H32.4V15.0008C32.3981 13.3447 31.0561 12.0027 29.4 12.0008H19.8004C18.1443 12.0027 16.8024 13.3447 16.8004 15.0008V21.0005H15.0004C14.007 21.0016 13.2017 21.8069 13.2006 22.8006V28.8003C13.2053 30.3792 14.4346 31.6833 16.0106 31.781L15.1479 34.8H9.5401C9.25309 33.4045 8.02568 32.402 6.6008 32.4001H5.40086V4.77697C5.40168 2.90029 6.85238 1.3433 8.72439 1.21037C10.5964 1.07744 12.2528 2.41361 12.5189 4.27134L12.5294 4.34412C11.7551 4.66299 11.3055 5.47595 11.4473 6.301L11.611 7.26968L10.0067 10.0247C9.79112 10.3952 9.78948 10.8525 10.0021 11.2246C10.2149 11.5968 10.6101 11.8272 11.0389 11.8291C11.1075 11.8291 11.1762 11.8234 11.2437 11.8118L16.9998 10.839C17.4588 10.7613 17.8315 10.4251 17.9562 9.97663C18.0806 9.52812 17.9345 9.04804 17.581 8.7451L15.1605 6.67012L14.9968 5.70144C14.8806 5.02607 14.3901 4.47568 13.7326 4.2826L13.7068 4.1016C13.3522 1.61987 11.1397 -0.165622 8.63925 0.0120765C6.13884 0.189775 4.20091 2.27024 4.20091 4.77697V32.4001H3.00097V31.8003C3.00097 31.4688 2.73236 31.2001 2.40086 31.2001C2.06963 31.2001 1.80103 31.4688 1.80103 31.8003V32.6544C0.709297 33.1315 0.00317376 34.2087 0.000976562 35.4001C0.000976562 35.7313 0.269584 35.9999 0.601085 35.9999H35.4C35.7312 35.9999 35.9998 35.7313 35.9998 35.4001C35.9998 35.0686 35.7312 34.8 35.4 34.8H34.0525L33.1899 31.781C34.7658 31.6833 35.9951 30.3792 35.9998 28.8003V22.8006C35.9987 21.8069 35.1934 21.0016 34.2 21.0005ZM16.7999 9.65584L11.0438 10.6289L12.6159 7.92912L14.4283 7.62288L16.8043 9.65474L16.7999 9.65584ZM13.9139 6.4927L12.7307 6.69265L12.6304 6.10105C12.5758 5.77449 12.7955 5.46524 13.1221 5.40948C13.1553 5.40399 13.1888 5.40124 13.2226 5.40124C13.5151 5.40179 13.7647 5.61272 13.8142 5.90111L13.9139 6.4927ZM19.8004 13.2007H29.4C30.3937 13.2018 31.1989 14.0071 31.2 15.0008V21.1112C30.4829 21.3636 30.0023 22.04 30.0001 22.8006V24.0159C29.4838 23.619 28.8512 23.4026 28.2 23.4004H26.0487L27.4244 22.0247C27.6516 21.7893 27.6485 21.4149 27.417 21.1837C27.1855 20.9522 26.8114 20.9489 26.576 21.1763L25.2003 22.552V19.8006C25.2003 19.4691 24.9314 19.2004 24.6002 19.2004C24.269 19.2004 24.0001 19.4691 24.0001 19.8006V22.552L22.6244 21.1763C22.389 20.9489 22.0149 20.9522 21.7834 21.1837C21.5519 21.4149 21.5489 21.7893 21.776 22.0247L23.1517 23.4004H21.0004C20.3492 23.4026 19.7167 23.619 19.2003 24.0159V22.8006C19.1981 22.04 18.7175 21.3636 18.0004 21.1112V15.0008C18.0015 14.0071 18.8068 13.2018 19.8004 13.2007ZM28.2 24.6003C29.1937 24.6014 29.999 25.4067 30.0001 26.4004V27.0002H19.2003V26.4004C19.2014 25.4067 20.0067 24.6014 21.0004 24.6003H28.2ZM29.052 31.8003L30.7664 34.8H18.4343L20.1484 31.8003H29.052ZM30.0001 30.6H19.2003V28.2002H30.0001V30.6ZM14.4006 28.8003V22.8006C14.4008 22.4693 14.6694 22.201 15.0004 22.2004H17.4006C17.7315 22.201 18.0001 22.4693 18.0004 22.8006V30.6H16.2006C15.2069 30.5989 14.4017 29.7939 14.4006 28.8003ZM1.30391 34.8C1.55879 34.0815 2.23827 33.6009 3.00097 33.6H6.6008C7.36322 33.6009 8.04298 34.0815 8.29786 34.8H1.30391ZM16.3959 34.8L17.2531 31.8003H18.7667L17.0526 34.8H16.3959ZM32.1479 34.8L30.4338 31.8003H31.9474L32.8045 34.8H32.1479ZM34.7999 28.8003C34.7988 29.7939 33.9935 30.5989 32.9998 30.6H31.2V22.8006C31.2003 22.4693 31.4689 22.201 31.7999 22.2004H34.2C34.531 22.201 34.7993 22.4693 34.7999 22.8006V28.8003Z" fill="#333333"/>
</g>
<defs>
<clipPath id="clip0">
<rect width="36" height="36" fill="white"/>
</clipPath>
</defs>
</svg>

<svg width="36" height="36" fill="none" xmlns="http://www.w3.org/2000/svg"><g opacity=".4" clip-path="url(#clip0)"><path d="M34.2 21h-1.8v-6a3.003 3.003 0 00-3-3h-9.6a3.003 3.003 0 00-3 3v6H15a1.802 1.802 0 00-1.8 1.8v6a2.995 2.995 0 002.81 2.981l-.862 3.019H9.54a3.005 3.005 0 00-2.94-2.4H5.4V4.777a3.577 3.577 0 017.119-.506l.01.073a1.789 1.789 0 00-1.082 1.957l.164.969-1.604 2.755a1.201 1.201 0 001.237 1.787L17 10.839a1.2 1.2 0 00.581-2.094l-2.42-2.075-.164-.969a1.796 1.796 0 00-1.264-1.418l-.026-.181a4.777 4.777 0 00-9.506.675V32.4H3v-.6a.6.6 0 10-1.2 0v.854A3.002 3.002 0 000 35.4a.6.6 0 00.6.6h34.8a.6.6 0 000-1.2h-1.347l-.863-3.019a2.995 2.995 0 002.81-2.98v-6a1.802 1.802 0 00-1.8-1.8zM16.8 9.656l-5.756.973 1.572-2.7 1.812-.306 2.376 2.032H16.8zm-2.886-3.163l-1.183.2-.1-.592a.601.601 0 011.183-.2l.1.592zM19.8 13.2h9.6a1.802 1.802 0 011.8 1.8v6.11A1.796 1.796 0 0030 22.8v1.215a2.97 2.97 0 00-1.8-.616h-2.151l1.375-1.375a.6.6 0 00-.848-.849L25.2 22.552v-2.751a.6.6 0 00-1.2 0v2.751l-1.376-1.376a.6.6 0 00-.848.849l1.376 1.375H21a2.97 2.97 0 00-1.8.616V22.8a1.796 1.796 0 00-1.2-1.69V15a1.802 1.802 0 011.8-1.8zm8.4 11.4a1.802 1.802 0 011.8 1.8v.6H19.2v-.6a1.802 1.802 0 011.8-1.8h7.2zm.852 7.2l1.714 2.999H18.434l1.714-3h8.904zM30 30.6H19.2v-2.4H30v2.4zm-15.6-1.8v-6a.6.6 0 01.6-.6h2.4a.6.6 0 01.6.6v7.8h-1.8a1.802 1.802 0 01-1.8-1.8zm-13.096 6c.255-.718.934-1.2 1.697-1.2h3.6c.762 0 1.442.481 1.697 1.2H1.304zm15.092 0l.857-3h1.514l-1.714 3h-.657zm15.752 0l-1.714-3h1.513l.857 3h-.656zm2.652-6a1.802 1.802 0 01-1.8 1.8h-1.8v-7.8a.6.6 0 01.6-.6h2.4c.331.001.6.27.6.6v6z" fill="#333"/></g><defs><clipPath id="clip0"><path fill="#fff" d="M0 0h36v36H0z"/></clipPath></defs></svg>
